X:263
T:La nomade
C:Michel-A Roy
M:6/8
R:jig
L:1/8
K:G
B2d BGD | E3 EFG | A2A- AGA | B2G DGA | B2d B2G | E3 EFG | czB AGF | G3 DGA
B2e d2G | E3 EFG | ADD  BDD | A3  DGA | B2d B2G | E3 EFG | czB A2G | G3 D_ED |:
K: Gmin
B2B BAG | A2A GAB | c2c cBA | B3 DED| B2B BAG | A2A GAB | czB A2B |1 G3 DED :|2 G3 DG=B ||
K: Gmix
d2d BGD | F3 DFG | AGF BGF| G3 DGB | d2d BGD | F3 DFG | AGF GDD | G3 DGB |
d2d BGD | F3 DFG | AGF BGF| G3 DGB | d2d BGD | F3 DFG | czB A2G | G3 DGA |]
